svg_80x80/bootstrap.svg

<svg viewBox="0 0 80 80" xmlns="http://www.w3.org/2000/svg">
<rect width="100%" height="100%" fill="#6831ED"/>
<path fill-rule="evenodd" clip-rule="evenodd" d="M18.9546 11C14.8464 11 11.8065 14.5957 11.9426 18.4953C12.0732 22.2418 11.9035 27.0938 10.682 31.0508C9.45675 35.0193 7.38461 37.5332 4 37.856V41.4999C7.38461 41.8227 9.45675 44.3366 10.682 48.3052C11.9035 52.2621 12.0732 57.1142 11.9426 60.8606C11.8065 64.7596 14.8464 68.3559 18.9553 68.3559H61.0508C65.1591 68.3559 68.1984 64.7602 68.0623 60.8606C67.9317 57.1142 68.1014 52.2621 69.3229 48.3052C70.5487 44.3366 72.6154 41.8227 76 41.4999V37.856C72.6154 37.5332 70.5487 35.0193 69.3229 31.0508C68.1014 27.0944 67.9317 22.2418 68.0623 18.4953C68.1984 14.5963 65.1591 11 61.0508 11H18.954H18.9546ZM52.8136 46.3062C52.8136 51.6757 48.8084 54.9322 42.1618 54.9322H30.8475C30.5238 54.9322 30.2134 54.8036 29.9845 54.5748C29.7557 54.3459 29.6271 54.0355 29.6271 53.7119V25.6441C29.6271 25.3204 29.7557 25.01 29.9845 24.7812C30.2134 24.5523 30.5238 24.4237 30.8475 24.4237H42.0972C47.6393 24.4237 51.2765 27.4258 51.2765 32.035C51.2765 35.2701 48.8298 38.1666 45.7124 38.6736V38.8426C49.9561 39.3082 52.8136 42.2468 52.8136 46.3062ZM40.9281 28.2922H34.4767V37.4045H39.9103C44.1107 37.4045 46.4269 35.7131 46.4269 32.6897C46.4269 29.8567 44.4353 28.2922 40.9281 28.2922ZM34.4767 41.0203V51.0625H41.1654C45.5385 51.0625 47.8553 49.3077 47.8553 46.0097C47.8553 42.7111 45.4738 41.0197 40.8841 41.0197L34.4767 41.0203Z" fill="white"/>
</svg>

<svg xmlns="http://www.w3.org/2000/svg" viewBox="0 0 80 80">
  <rect width="100%" height="100%" fill="#6831ED"/>
  <path fill="#fff" fill-rule="evenodd" d="M19 11a7.2 7.2 0 0 0-7 7.5c0 3.7-.1 8.6-1.3 12.6S7.4 37.5 4 37.9v3.6c3.4.3 5.5 2.8 6.7 6.8 1.2 4 1.4 8.8 1.2 12.6a7.2 7.2 0 0 0 7 7.5h42.2c4 0 7.1-3.6 7-7.5-.2-3.8 0-8.6 1.2-12.6s3.3-6.5 6.7-6.8v-3.6c-3.4-.4-5.5-2.9-6.7-6.8-1.2-4-1.4-8.9-1.2-12.6a7.2 7.2 0 0 0-7-7.5H19Zm33.8 35.3c0 5.4-4 8.6-10.6 8.6H30.8a1.2 1.2 0 0 1-1.2-1.2v-28a1.2 1.2 0 0 1 1.2-1.3h11.3c5.5 0 9.2 3 9.2 7.6 0 3.3-2.5 6.2-5.6 6.7v.1c4.3.5 7.1 3.4 7.1 7.5ZM41 28.3h-6.4v9.1h5.4c4.2 0 6.5-1.7 6.5-4.7 0-2.8-2-4.4-5.5-4.4ZM34.5 41v10h6.7c4.3 0 6.7-1.7 6.7-5s-2.4-5-7-5h-6.4Z" clip-rule="evenodd"/>
</svg>
